icons/folder-js-open.svg

<?xml version="1.0" encoding="UTF-8"?>
<svg clip-rule="evenodd" stroke-linejoin="round" stroke-miterlimit="1.4142" version="1.1" viewBox="0 0 24 24" xml:space="preserve" xmlns="http://www.w3.org/2000/svg"><path d="m19 20h-15c-1.11 0-2-0.9-2-2v-12c0-1.11 0.89-2 2-2h6l2 2h7c1.097 0 2 0.903 2 2h-17v10l2.14-8h17.07l-2.28 8.5c-0.23 0.87-1.01 1.5-1.93 1.5z" fill="#fbc02d"/><g transform="matrix(.62542 0 0 .62542 3.4516 1.7933)" clip-rule="evenodd" fill="#ffeb58" fill-rule="evenodd" stroke-linejoin="round" stroke-miterlimit="1.4142"><path d="m23.013 26.479c0.555 1.123 1.708 1.833 2.961 1.821 1.244 0 2.033-0.622 2.033-1.481 0-1.025-0.815-1.393-2.181-1.989l-0.753-0.324c-2.155-0.92-3.61-2.068-3.61-4.512 0-2.252 1.752-3.96 4.38-3.96 1.772-0.129 3.457 0.819 4.267 2.4l-2.33 1.5c-0.313-0.789-1.087-1.304-1.936-1.288-0.044-4e-3 -0.088-7e-3 -0.132-7e-3 -0.666 0-1.231 0.511-1.298 1.174-4e-3 0.04-6e-3 0.08-7e-3 0.121 0 0.876 0.561 1.262 1.84 1.822l0.753 0.324c2.549 1.1 3.986 2.208 3.986 4.713 0 2.7-2.12 4.179-4.967 4.179-2.253 0.132-4.384-1.073-5.433-3.072zm-10.583 0.263c0.473 0.876 0.876 1.542 1.927 1.542s1.6-0.385 1.6-1.884v-10.171h3v10.215c0 3.1-1.822 4.521-4.477 4.521-1.917 0.103-3.709-0.991-4.494-2.742z" fill="#ffeb58" fill-rule="nonzero"/></g></svg>

<?xml version="1.0" encoding="UTF-8" standalone="no"?>
<!DOCTYPE svg PUBLIC "-//W3C//DTD SVG 1.1//EN" "http://www.w3.org/Graphics/SVG/1.1/DTD/svg11.dtd">
<svg width="100%" height="100%" viewBox="0 0 24 24" version="1.1" xmlns="http://www.w3.org/2000/svg" xmlns:xlink="http://www.w3.org/1999/xlink" xml:space="preserve" style="fill-rule:evenodd;clip-rule:evenodd;stroke-linejoin:round;stroke-miterlimit:1.41421;">
    <path id="path2" d="M19,20L4,20C2.89,20 2,19.1 2,18L2,6C2,4.89 2.89,4 4,4L10,4L12,6L19,6C20.097,6 21,6.903 21,8L4,8L4,18L6.14,10L23.21,10L20.93,18.5C20.7,19.37 19.92,20 19,20Z" style="fill:rgb(249,168,37);fill-rule:nonzero;"/>
    <g transform="matrix(0.802168,0,0,0.802168,-0.855966,-1.8526)">
        <path d="M23.013,26.479C23.568,27.602 24.721,28.312 25.974,28.3C27.218,28.3 28.007,27.678 28.007,26.819C28.007,25.794 27.192,25.426 25.826,24.83L25.073,24.506C22.918,23.586 21.463,22.438 21.463,19.994C21.463,17.742 23.215,16.034 25.843,16.034C27.615,15.905 29.3,16.853 30.11,18.434L27.78,19.934C27.467,19.145 26.693,18.63 25.844,18.646C25.8,18.642 25.756,18.639 25.712,18.639C25.046,18.639 24.481,19.15 24.414,19.813C24.41,19.853 24.408,19.893 24.407,19.934C24.407,20.81 24.968,21.196 26.247,21.756L27,22.08C29.549,23.18 30.986,24.288 30.986,26.793C30.986,29.493 28.866,30.972 26.019,30.972C23.766,31.104 21.635,29.899 20.586,27.9L23.013,26.479ZM12.43,26.742C12.903,27.618 13.306,28.284 14.357,28.284C15.408,28.284 15.957,27.899 15.957,26.4L15.957,16.229L18.957,16.229L18.957,26.444C18.957,29.544 17.135,30.965 14.48,30.965C12.563,31.068 10.771,29.974 9.986,28.223L12.43,26.742Z" style="fill:rgb(245,222,25);fill-rule:nonzero;"/>
    </g>
</svg>
